report_00007_2020-12-11T15:55:29.892Z/metrics/comparison/line/0_vs_1.svg

<svg width="640" height="500" xmlns="http://www.w3.org/2000/svg" xmlns:xlink="http://www.w3.org/1999/xlink"><path fill="#fff" d="M0 0h640v500H0z"/><defs><path id="d" stroke-width=".222" stroke="currentColor" d="M-1-1h2v2h-2z"/><path id="b" stroke-width=".222" stroke="currentColor" d="M0-1.33l-1.33 2h2.66z"/><path id="f" stroke-width=".222" stroke="currentColor" d="M0 1.33L1.265.411.782-1.067l-1.564-.009-.483 1.487z"/><use xlink:href="#b" id="c" stroke="currentColor" transform="rotate(180)"/><use xlink:href="#d" id="e" stroke="currentColor" transform="rotate(45)"/><circle id="a" stroke-width=".222" stroke="currentColor" cx="0" cy="0" r="1"/></defs><g fill="none" color="#000" stroke="currentColor"><path stroke="#000" d="M70.5 390.9h9m535.5 0h-9"/><text transform="translate(62.2 394.8)" stroke="none" fill="#000" font-family="Arial" font-size="12" text-anchor="end"><tspan>2000</tspan></text></g><g fill="none" color="#000" stroke="currentColor"><path stroke="#000" d="M70.5 322.8h9m535.5 0h-9"/><text transform="translate(62.2 326.7)" stroke="none" fill="#000" font-family="Arial" font-size="12" text-anchor="end"><tspan>4000</tspan></text></g><g fill="none" color="#000" stroke="currentColor"><path stroke="#000" d="M70.5 254.7h9m535.5 0h-9"/><text transform="translate(62.2 258.6)" stroke="none" fill="#000" font-family="Arial" font-size="12" text-anchor="end"><tspan>6000</tspan></text></g><g fill="none" color="#000" stroke="currentColor"><path stroke="#000" d="M70.5 186.6h9m535.5 0h-9"/><text transform="translate(62.2 190.5)" stroke="none" fill="#000" font-family="Arial" font-size="12" text-anchor="end"><tspan>8000</tspan></text></g><g fill="none" color="#000" stroke="currentColor"><path stroke="#000" d="M70.5 118.5h9m535.5 0h-9"/><text transform="translate(62.2 122.4)" stroke="none" fill="#000" font-family="Arial" font-size="12" text-anchor="end"><tspan>10000</tspan></text></g><g fill="none" color="#000" stroke="currentColor"><path stroke="#000" d="M70.5 50.4h9m535.5 0h-9"/><text transform="translate(62.2 54.3)" stroke="none" fill="#000" font-family="Arial" font-size="12" text-anchor="end"><tspan>12000</tspan></text></g><g fill="none" color="#000" stroke="currentColor"><path stroke="#000" d="M70.5 446v-9m0-418.9v9"/><text transform="translate(70.5 467.9)" stroke="none" fill="#000" font-family="Arial" font-size="12" text-anchor="middle"><tspan>0</tspan></text></g><g fill="none" color="#000" stroke="currentColor"><path stroke="#000" d="M125.5 446v-9m0-418.9v9"/><text transform="translate(125.5 467.9)" stroke="none" fill="#000" font-family="Arial" font-size="12" text-anchor="middle"><tspan>10</tspan></text></g><g fill="none" color="#000" stroke="currentColor"><path stroke="#000" d="M180.5 446v-9m0-418.9v9"/><text transform="translate(180.5 467.9)" stroke="none" fill="#000" font-family="Arial" font-size="12" text-anchor="middle"><tspan>20</tspan></text></g><g fill="none" color="#000" stroke="currentColor"><path stroke="#000" d="M235.5 446v-9m0-418.9v9"/><text transform="translate(235.5 467.9)" stroke="none" fill="#000" font-family="Arial" font-size="12" text-anchor="middle"><tspan>30</tspan></text></g><g fill="none" color="#000" stroke="currentColor"><path stroke="#000" d="M290.5 446v-9m0-418.9v9"/><text transform="translate(290.5 467.9)" stroke="none" fill="#000" font-family="Arial" font-size="12" text-anchor="middle"><tspan>40</tspan></text></g><g fill="none" color="#000" stroke="currentColor"><path stroke="#000" d="M345.5 446v-9m0-418.9v9"/><text transform="translate(345.5 467.9)" stroke="none" fill="#000" font-family="Arial" font-size="12" text-anchor="middle"><tspan>50</tspan></text></g><g fill="none" color="#000" stroke="currentColor"><path stroke="#000" d="M400.5 446v-9m0-418.9v9"/><text transform="translate(400.5 467.9)" stroke="none" fill="#000" font-family="Arial" font-size="12" text-anchor="middle"><tspan>60</tspan></text></g><g fill="none" color="#000" stroke="currentColor"><path stroke="#000" d="M455.5 446v-9m0-418.9v9"/><text transform="translate(455.5 467.9)" stroke="none" fill="#000" font-family="Arial" font-size="12" text-anchor="middle"><tspan>70</tspan></text></g><g fill="none" color="#000" stroke="currentColor"><path stroke="#000" d="M510.5 446v-9m0-418.9v9"/><text transform="translate(510.5 467.9)" stroke="none" fill="#000" font-family="Arial" font-size="12" text-anchor="middle"><tspan>80</tspan></text></g><g fill="none" color="#000" stroke="currentColor"><path stroke="#000" d="M565.5 446v-9m0-418.9v9"/><text transform="translate(565.5 467.9)" stroke="none" fill="#000" font-family="Arial" font-size="12" text-anchor="middle"><tspan>90</tspan></text></g><path stroke="#000" d="M70.5 18.1V446H615V18.1H70.5z" fill="none" color="#000"/><text transform="translate(283.9 485.9)" stroke="none" fill="#000" font-family="Arial" font-size="12" text-anchor="end" color="#000"><tspan>empty</tspan></text><path stroke="#9400D3" d="M292.2 482h42.2M70.5 437.4l5.5.3h5.5l5.5-.1 5.5.1 5.5-.1 5.5.1H120l5.5.1 5.5-.1h5.5l5.5-.2 5.5.1h5.5l5.5.1h5.5l5.5-.1 5.5.1h44l5.5-.1h5.5l5.5-.1 5.5.1h11l5.5-.1 5.5.1 5.5.1h33l5.5-.1 5.5.1H329l5.5-.1 5.5-.2 5.5.3 5.5-.1h5.5l5.5-.1 5.5.1 5.5.1h5.5l5.5-.1 5.5.1h5.5l5.5-.1 5.5.1h22l5.5.1 5.5-.1 5.5-.1h5.5l5.5.1 5.5.1 5.5-.1h5.5l5.5-.1 5.5.1h11l5.5-.1 5.5.1 5.5.1 5.5-.1h5.5l5.5-.1 5.5.1H571l5.5.1 5.5-.2 5.5.1 5.5-.1 5.5.1h5.5l5.5.1 5.5-.3" fill="none" color="#000"/><text transform="translate(384.2 485.9)" stroke="none" fill="#000" font-family="Arial" font-size="12" text-anchor="end" color="#000"><tspan>pages</tspan></text><path stroke="#009E73" d="M392.5 482h42.2M70.5 26.3L76 59.6l5.5 1 5.5-1.5 5.5.4L98 62l5.5-2.7 5.5 2.4 5.5-.1 5.5.2 5.5.5 5.5-7.4 5.5 9.7 5.5-2.7 5.5.7 5.5-1.2 5.5.6 5.5.5 5.5-3 5.5 1.9 5.5.8L186 65l5.5-7.8L197 59l5.5 3 5.5.3 5.5-.6 5.5.3 5.5.3 5.5-2.4 5.5 1.3 5.5.5 5.5.5 5.5 2.5 5.5-3.2L263 67l5.5-2.1L274 67l5.5-5.6 5.5.2 5.5 2.6 5.5-1.9 5.5-.7L307 58l5.5 3.8 5.5-4.3 5.5 1.6L329 62l5.5.1 5.5-2.7 5.5.1 5.5.4 5.5.2 5.5-.9 5.5 2.3 5.5.3 5.5-6.4 5.5 8.8 5.5-2.2 5.5-2.3 5.5 1 5.5 4.4 5.5-1.4 5.5 1.2 5.5-6.6 5.5-3.2 5.5 9.4 5.5-2 5.5-6.3 5.5 8.4 5.5.1 5.5-2.2 5.5-.9 5.5 2.8 5.5-3.7 5.5 4.1 5.5 1.1 5.5-1.3 5.5-2.5 5.5-2.3 5.5-.7 5.5 2.5 5.5.6L527 57l5.5 9.9 5.5-19.7 5.5 23.9 5.5-10.9 5.5-2.1 5.5.1 5.5 4.2 5.5-.7 5.5 2.8 5.5-2.3 5.5-3.1 5.5-.3 5.5 3.1 5.5-2.8 5.5 3.3 5.5-3.6" fill="none" color="#000"/><g fill="none" color="#000" stroke="currentColor"><path stroke="#000" d="M70.5 18.1V446H615V18.1H70.5z"/></g></svg>

<?xml version="1.0" encoding="utf-8"  standalone="no"?>
<svg 
 width="640" height="500"
 viewBox="0 0 640 500"
 xmlns="http://www.w3.org/2000/svg"
 xmlns:xlink="http://www.w3.org/1999/xlink"
>

<title>Gnuplot</title>
<desc>Produced by GNUPLOT 5.4 patchlevel 0 </desc>

<g id="gnuplot_canvas">

<rect x="0" y="0" width="640" height="500" fill="#ffffff"/>
<defs>

	<circle id='gpDot' r='0.5' stroke-width='0.5' stroke='currentColor'/>
	<path id='gpPt0' stroke-width='0.222' stroke='currentColor' d='M-1,0 h2 M0,-1 v2'/>
	<path id='gpPt1' stroke-width='0.222' stroke='currentColor' d='M-1,-1 L1,1 M1,-1 L-1,1'/>
	<path id='gpPt2' stroke-width='0.222' stroke='currentColor' d='M-1,0 L1,0 M0,-1 L0,1 M-1,-1 L1,1 M-1,1 L1,-1'/>
	<rect id='gpPt3' stroke-width='0.222' stroke='currentColor' x='-1' y='-1' width='2' height='2'/>
	<rect id='gpPt4' stroke-width='0.222' stroke='currentColor' fill='currentColor' x='-1' y='-1' width='2' height='2'/>
	<circle id='gpPt5' stroke-width='0.222' stroke='currentColor' cx='0' cy='0' r='1'/>
	<use xlink:href='#gpPt5' id='gpPt6' fill='currentColor' stroke='none'/>
	<path id='gpPt7' stroke-width='0.222' stroke='currentColor' d='M0,-1.33 L-1.33,0.67 L1.33,0.67 z'/>
	<use xlink:href='#gpPt7' id='gpPt8' fill='currentColor' stroke='none'/>
	<use xlink:href='#gpPt7' id='gpPt9' stroke='currentColor' transform='rotate(180)'/>
	<use xlink:href='#gpPt9' id='gpPt10' fill='currentColor' stroke='none'/>
	<use xlink:href='#gpPt3' id='gpPt11' stroke='currentColor' transform='rotate(45)'/>
	<use xlink:href='#gpPt11' id='gpPt12' fill='currentColor' stroke='none'/>
	<path id='gpPt13' stroke-width='0.222' stroke='currentColor' d='M0,1.330 L1.265,0.411 L0.782,-1.067 L-0.782,-1.076 L-1.265,0.411 z'/>
	<use xlink:href='#gpPt13' id='gpPt14' fill='currentColor' stroke='none'/>
	<filter id='textbox' filterUnits='objectBoundingBox' x='0' y='0' height='1' width='1'>
	  <feFlood flood-color='#FFFFFF' flood-opacity='1' result='bgnd'/>
	  <feComposite in='SourceGraphic' in2='bgnd' operator='atop'/>
	</filter>
	<filter id='greybox' filterUnits='objectBoundingBox' x='0' y='0' height='1' width='1'>
	  <feFlood flood-color='lightgrey' flood-opacity='1' result='grey'/>
	  <feComposite in='SourceGraphic' in2='grey' operator='atop'/>
	</filter>
</defs>
<g fill="none" color="#FFFFFF" stroke="black" stroke-width="1.00" stroke-linecap="butt" stroke-linejoin="miter">
</g>
<g fill="none" color="black" stroke="currentColor" stroke-width="1.00" stroke-linecap="butt" stroke-linejoin="miter">
	<path stroke='black'  d='M70.5,390.9 L79.5,390.9 M615.0,390.9 L606.0,390.9  '/>	<g transform="translate(62.2,394.8)" stroke="none" fill="black" font-family="Arial" font-size="12.00"  text-anchor="end">
		<text><tspan font-family="Arial" > 2000</tspan></text>
	</g>
</g>
<g fill="none" color="black" stroke="currentColor" stroke-width="1.00" stroke-linecap="butt" stroke-linejoin="miter">
	<path stroke='black'  d='M70.5,322.8 L79.5,322.8 M615.0,322.8 L606.0,322.8  '/>	<g transform="translate(62.2,326.7)" stroke="none" fill="black" font-family="Arial" font-size="12.00"  text-anchor="end">
		<text><tspan font-family="Arial" > 4000</tspan></text>
	</g>
</g>
<g fill="none" color="black" stroke="currentColor" stroke-width="1.00" stroke-linecap="butt" stroke-linejoin="miter">
	<path stroke='black'  d='M70.5,254.7 L79.5,254.7 M615.0,254.7 L606.0,254.7  '/>	<g transform="translate(62.2,258.6)" stroke="none" fill="black" font-family="Arial" font-size="12.00"  text-anchor="end">
		<text><tspan font-family="Arial" > 6000</tspan></text>
	</g>
</g>
<g fill="none" color="black" stroke="currentColor" stroke-width="1.00" stroke-linecap="butt" stroke-linejoin="miter">
	<path stroke='black'  d='M70.5,186.6 L79.5,186.6 M615.0,186.6 L606.0,186.6  '/>	<g transform="translate(62.2,190.5)" stroke="none" fill="black" font-family="Arial" font-size="12.00"  text-anchor="end">
		<text><tspan font-family="Arial" > 8000</tspan></text>
	</g>
</g>
<g fill="none" color="black" stroke="currentColor" stroke-width="1.00" stroke-linecap="butt" stroke-linejoin="miter">
	<path stroke='black'  d='M70.5,118.5 L79.5,118.5 M615.0,118.5 L606.0,118.5  '/>	<g transform="translate(62.2,122.4)" stroke="none" fill="black" font-family="Arial" font-size="12.00"  text-anchor="end">
		<text><tspan font-family="Arial" > 10000</tspan></text>
	</g>
</g>
<g fill="none" color="black" stroke="currentColor" stroke-width="1.00" stroke-linecap="butt" stroke-linejoin="miter">
	<path stroke='black'  d='M70.5,50.4 L79.5,50.4 M615.0,50.4 L606.0,50.4  '/>	<g transform="translate(62.2,54.3)" stroke="none" fill="black" font-family="Arial" font-size="12.00"  text-anchor="end">
		<text><tspan font-family="Arial" > 12000</tspan></text>
	</g>
</g>
<g fill="none" color="black" stroke="currentColor" stroke-width="1.00" stroke-linecap="butt" stroke-linejoin="miter">
	<path stroke='black'  d='M70.5,446.0 L70.5,437.0 M70.5,18.1 L70.5,27.1  '/>	<g transform="translate(70.5,467.9)" stroke="none" fill="black" font-family="Arial" font-size="12.00"  text-anchor="middle">
		<text><tspan font-family="Arial" > 0</tspan></text>
	</g>
</g>
<g fill="none" color="black" stroke="currentColor" stroke-width="1.00" stroke-linecap="butt" stroke-linejoin="miter">
	<path stroke='black'  d='M125.5,446.0 L125.5,437.0 M125.5,18.1 L125.5,27.1  '/>	<g transform="translate(125.5,467.9)" stroke="none" fill="black" font-family="Arial" font-size="12.00"  text-anchor="middle">
		<text><tspan font-family="Arial" > 10</tspan></text>
	</g>
</g>
<g fill="none" color="black" stroke="currentColor" stroke-width="1.00" stroke-linecap="butt" stroke-linejoin="miter">
	<path stroke='black'  d='M180.5,446.0 L180.5,437.0 M180.5,18.1 L180.5,27.1  '/>	<g transform="translate(180.5,467.9)" stroke="none" fill="black" font-family="Arial" font-size="12.00"  text-anchor="middle">
		<text><tspan font-family="Arial" > 20</tspan></text>
	</g>
</g>
<g fill="none" color="black" stroke="currentColor" stroke-width="1.00" stroke-linecap="butt" stroke-linejoin="miter">
	<path stroke='black'  d='M235.5,446.0 L235.5,437.0 M235.5,18.1 L235.5,27.1  '/>	<g transform="translate(235.5,467.9)" stroke="none" fill="black" font-family="Arial" font-size="12.00"  text-anchor="middle">
		<text><tspan font-family="Arial" > 30</tspan></text>
	</g>
</g>
<g fill="none" color="black" stroke="currentColor" stroke-width="1.00" stroke-linecap="butt" stroke-linejoin="miter">
	<path stroke='black'  d='M290.5,446.0 L290.5,437.0 M290.5,18.1 L290.5,27.1  '/>	<g transform="translate(290.5,467.9)" stroke="none" fill="black" font-family="Arial" font-size="12.00"  text-anchor="middle">
		<text><tspan font-family="Arial" > 40</tspan></text>
	</g>
</g>
<g fill="none" color="black" stroke="currentColor" stroke-width="1.00" stroke-linecap="butt" stroke-linejoin="miter">
	<path stroke='black'  d='M345.5,446.0 L345.5,437.0 M345.5,18.1 L345.5,27.1  '/>	<g transform="translate(345.5,467.9)" stroke="none" fill="black" font-family="Arial" font-size="12.00"  text-anchor="middle">
		<text><tspan font-family="Arial" > 50</tspan></text>
	</g>
</g>
<g fill="none" color="black" stroke="currentColor" stroke-width="1.00" stroke-linecap="butt" stroke-linejoin="miter">
	<path stroke='black'  d='M400.5,446.0 L400.5,437.0 M400.5,18.1 L400.5,27.1  '/>	<g transform="translate(400.5,467.9)" stroke="none" fill="black" font-family="Arial" font-size="12.00"  text-anchor="middle">
		<text><tspan font-family="Arial" > 60</tspan></text>
	</g>
</g>
<g fill="none" color="black" stroke="currentColor" stroke-width="1.00" stroke-linecap="butt" stroke-linejoin="miter">
	<path stroke='black'  d='M455.5,446.0 L455.5,437.0 M455.5,18.1 L455.5,27.1  '/>	<g transform="translate(455.5,467.9)" stroke="none" fill="black" font-family="Arial" font-size="12.00"  text-anchor="middle">
		<text><tspan font-family="Arial" > 70</tspan></text>
	</g>
</g>
<g fill="none" color="black" stroke="currentColor" stroke-width="1.00" stroke-linecap="butt" stroke-linejoin="miter">
	<path stroke='black'  d='M510.5,446.0 L510.5,437.0 M510.5,18.1 L510.5,27.1  '/>	<g transform="translate(510.5,467.9)" stroke="none" fill="black" font-family="Arial" font-size="12.00"  text-anchor="middle">
		<text><tspan font-family="Arial" > 80</tspan></text>
	</g>
</g>
<g fill="none" color="black" stroke="currentColor" stroke-width="1.00" stroke-linecap="butt" stroke-linejoin="miter">
	<path stroke='black'  d='M565.5,446.0 L565.5,437.0 M565.5,18.1 L565.5,27.1  '/>	<g transform="translate(565.5,467.9)" stroke="none" fill="black" font-family="Arial" font-size="12.00"  text-anchor="middle">
		<text><tspan font-family="Arial" > 90</tspan></text>
	</g>
</g>
<g fill="none" color="black" stroke="currentColor" stroke-width="1.00" stroke-linecap="butt" stroke-linejoin="miter">
</g>
<g fill="none" color="black" stroke="currentColor" stroke-width="1.00" stroke-linecap="butt" stroke-linejoin="miter">
	<path stroke='black'  d='M70.5,18.1 L70.5,446.0 L615.0,446.0 L615.0,18.1 L70.5,18.1 Z  '/></g>
<g fill="none" color="black" stroke="currentColor" stroke-width="1.00" stroke-linecap="butt" stroke-linejoin="miter">
</g>
	<g id="gnuplot_plot_1" ><title>empty</title>
<g fill="none" color="black" stroke="currentColor" stroke-width="1.00" stroke-linecap="butt" stroke-linejoin="miter">
	<g transform="translate(283.9,485.9)" stroke="none" fill="black" font-family="Arial" font-size="12.00"  text-anchor="end">
		<text><tspan font-family="Arial" >empty</tspan></text>
	</g>
</g>
<g fill="none" color="black" stroke="currentColor" stroke-width="1.00" stroke-linecap="butt" stroke-linejoin="miter">
	<path stroke='rgb(148,   0, 211)'  d='M292.2,482.0 L334.4,482.0 M70.5,437.4 L76.0,437.7 L81.5,437.7 L87.0,437.6 L92.5,437.7 L98.0,437.6
		L103.5,437.7 L109.0,437.7 L114.5,437.7 L120.0,437.7 L125.5,437.8 L131.0,437.7 L136.5,437.7 L142.0,437.5
		L147.5,437.6 L153.0,437.6 L158.5,437.7 L164.0,437.7 L169.5,437.6 L175.0,437.7 L180.5,437.7 L186.0,437.7
		L191.5,437.7 L197.0,437.7 L202.5,437.7 L208.0,437.7 L213.5,437.7 L219.0,437.7 L224.5,437.6 L230.0,437.6
		L235.5,437.5 L241.0,437.6 L246.5,437.6 L252.0,437.6 L257.5,437.5 L263.0,437.6 L268.5,437.7 L274.0,437.7
		L279.5,437.7 L285.0,437.7 L290.5,437.7 L296.0,437.7 L301.5,437.7 L307.0,437.6 L312.5,437.7 L318.0,437.7
		L323.5,437.7 L329.0,437.7 L334.5,437.6 L340.0,437.4 L345.5,437.7 L351.0,437.6 L356.5,437.6 L362.0,437.5
		L367.5,437.6 L373.0,437.7 L378.5,437.7 L384.0,437.6 L389.5,437.7 L395.0,437.7 L400.5,437.6 L406.0,437.7
		L411.5,437.7 L417.0,437.7 L422.5,437.7 L428.0,437.7 L433.5,437.8 L439.0,437.7 L444.5,437.6 L450.0,437.6
		L455.5,437.7 L461.0,437.8 L466.5,437.7 L472.0,437.7 L477.5,437.6 L483.0,437.7 L488.5,437.7 L494.0,437.7
		L499.5,437.6 L505.0,437.7 L510.5,437.8 L516.0,437.7 L521.5,437.7 L527.0,437.6 L532.5,437.7 L538.0,437.7
		L543.5,437.7 L549.0,437.7 L554.5,437.7 L560.0,437.7 L565.5,437.7 L571.0,437.7 L576.5,437.8 L582.0,437.6
		L587.5,437.7 L593.0,437.6 L598.5,437.7 L604.0,437.7 L609.5,437.8 L615.0,437.5  '/></g>
	</g>
	<g id="gnuplot_plot_2" ><title>pages</title>
<g fill="none" color="black" stroke="currentColor" stroke-width="1.00" stroke-linecap="butt" stroke-linejoin="miter">
	<g transform="translate(384.2,485.9)" stroke="none" fill="black" font-family="Arial" font-size="12.00"  text-anchor="end">
		<text><tspan font-family="Arial" >pages</tspan></text>
	</g>
</g>
<g fill="none" color="black" stroke="currentColor" stroke-width="1.00" stroke-linecap="butt" stroke-linejoin="miter">
	<path stroke='rgb(  0, 158, 115)'  d='M392.5,482.0 L434.7,482.0 M70.5,26.3 L76.0,59.6 L81.5,60.6 L87.0,59.1 L92.5,59.5 L98.0,62.0
		L103.5,59.3 L109.0,61.7 L114.5,61.6 L120.0,61.8 L125.5,62.3 L131.0,54.9 L136.5,64.6 L142.0,61.9
		L147.5,62.6 L153.0,61.4 L158.5,62.0 L164.0,62.5 L169.5,59.5 L175.0,61.4 L180.5,62.2 L186.0,65.0
		L191.5,57.2 L197.0,59.0 L202.5,62.0 L208.0,62.3 L213.5,61.7 L219.0,62.0 L224.5,62.3 L230.0,59.9
		L235.5,61.2 L241.0,61.7 L246.5,62.2 L252.0,64.7 L257.5,61.5 L263.0,67.0 L268.5,64.9 L274.0,67.0
		L279.5,61.4 L285.0,61.6 L290.5,64.2 L296.0,62.3 L301.5,61.6 L307.0,58.0 L312.5,61.8 L318.0,57.5
		L323.5,59.1 L329.0,62.0 L334.5,62.1 L340.0,59.4 L345.5,59.5 L351.0,59.9 L356.5,60.1 L362.0,59.2
		L367.5,61.5 L373.0,61.8 L378.5,55.4 L384.0,64.2 L389.5,62.0 L395.0,59.7 L400.5,60.7 L406.0,65.1
		L411.5,63.7 L417.0,64.9 L422.5,58.3 L428.0,55.1 L433.5,64.5 L439.0,62.5 L444.5,56.2 L450.0,64.6
		L455.5,64.7 L461.0,62.5 L466.5,61.6 L472.0,64.4 L477.5,60.7 L483.0,64.8 L488.5,65.9 L494.0,64.6
		L499.5,62.1 L505.0,59.8 L510.5,59.1 L516.0,61.6 L521.5,62.2 L527.0,57.0 L532.5,66.9 L538.0,47.2
		L543.5,71.1 L549.0,60.2 L554.5,58.1 L560.0,58.2 L565.5,62.4 L571.0,61.7 L576.5,64.5 L582.0,62.2
		L587.5,59.1 L593.0,58.8 L598.5,61.9 L604.0,59.1 L609.5,62.4 L615.0,58.8  '/></g>
	</g>
<g fill="none" color="#FFFFFF" stroke="rgb(  0, 158, 115)" stroke-width="2.00" stroke-linecap="butt" stroke-linejoin="miter">
</g>
<g fill="none" color="black" stroke="currentColor" stroke-width="2.00" stroke-linecap="butt" stroke-linejoin="miter">
</g>
<g fill="none" color="black" stroke="black" stroke-width="1.00" stroke-linecap="butt" stroke-linejoin="miter">
</g>
<g fill="none" color="black" stroke="currentColor" stroke-width="1.00" stroke-linecap="butt" stroke-linejoin="miter">
	<path stroke='black'  d='M70.5,18.1 L70.5,446.0 L615.0,446.0 L615.0,18.1 L70.5,18.1 Z  '/></g>
<g fill="none" color="black" stroke="currentColor" stroke-width="1.00" stroke-linecap="butt" stroke-linejoin="miter">
</g>
</g>
</svg>
